static/images/principles/saas-ppc-middle-line.svg

<svg width="5" height="1289" viewBox="0 0 5 1289" fill="none" xmlns="http://www.w3.org/2000/svg">
<path opacity="0.23" d="M4.99636 1225.8C5.02634 1227.33 4.86421 1229.5 4.85567 1231.31C4.81818 1238.9 4.70579 1241.72 4.64205 1248.59C4.54737 1258.77 4.76047 1289 3.63409 1289C3.63406 1289 3.63403 1289 3.634 1289C3.62296 1289 3.61179 1289 3.60048 1288.99C3.3859 1288.89 3.15164 1286.31 2.90895 1285.93C2.66618 1285.55 1.09887 1285.84 1.01076 1282.19C0.894643 1276.89 1.29651 1264.19 1.2787 1261.37C1.26643 1259.44 1.12395 1257.06 1.09865 1254.59C1.01711 1246.63 1.1213 1242.47 0.734265 1235.3C0.938224 1232.43 1.14218 1229.56 1.34614 1226.69C1.25158 1222.95 1.52056 1217.28 1.50575 1215C1.49356 1213.14 1.33228 1212.04 1.32478 1210.1C1.31546 1207.92 1.48955 1204.57 1.46333 1200.61C1.42115 1194.1 1.0004 1192.95 0.946971 1189.05C0.891679 1185 1.12036 1178.71 0.972299 1173.55C0.926014 1172.9 0.879729 1172.25 0.833444 1171.6C0.728769 1172.07 0.624093 1172.53 0.519418 1173C0.470691 1170.4 0.685212 1169.28 0.689095 1166.89C0.693782 1164.08 0.490404 1162.64 0.491341 1160.75C0.492288 1159.2 0.655366 1157.1 0.64515 1155.09C0.631089 1152.16 0.395626 1152.8 0.35157 1151.23C0.334456 1150.6 0.204515 1138.97 0.202643 1138.31C0.193358 1133.33 0.515649 1132.89 0.54383 1128.91C0.620693 1117.88 0.360269 1106.55 0.261845 1096.35C0.217815 1091.79 0.236543 1087.03 0.28809 1082.49C1.11293 1089.65 1.75487 1073.81 0.464177 1079.73C0.647794 1074.68 0.299368 1071.09 0.35828 1066.3C0.396711 1063.2 0.575674 1061.05 0.570987 1056.63C0.56153 1048.77 0.0528225 1040.18 0.972294 1037.92C0.810202 1028.7 1.14373 1020.72 0.332033 1017.39C0.282447 1015.01 0.765927 1008.92 0.831606 1006.25C0.893471 1003.73 1.11178 984.382 1.12396 981.217C1.13615 978.051 1.1494 972.51 1.07819 969.843C0.990075 966.494 0.148282 964.153 1.13251 958.19C1.05286 951.256 1.08103 948.786 1.19537 942.337C1.21605 941.169 1.36217 941.037 1.3623 940.355C1.3623 938.95 1.25432 936.559 1.24115 934.051C1.21959 929.927 1.52705 927.573 1.05743 928.033C0.978697 925.314 0.899962 922.595 0.821226 919.875C0.911863 918.921 1.0025 917.967 1.09314 917.013C0.994363 915.559 0.895587 914.106 0.796812 912.652C1.47638 914.36 1.07535 904.127 0.685422 907.45C0.826006 902.178 0.966591 896.907 1.10718 891.636C1.87952 892.372 1.19631 880.062 0.776364 881.099C0.776974 880.495 0.777584 879.892 0.778194 879.289C0.983476 874.009 0.815574 869.159 0.953365 862.723C1.09115 856.287 1.16635 856.891 1.5216 854.934C1.50126 853.42 1.48091 851.905 1.46057 850.391C0.486657 842.444 2.17285 843.849 1.42578 830.24C2.03787 825.893 1.71635 815.175 1.53076 808.069C1.5092 807.242 1.39039 807.228 1.35375 806.127C1.26565 803.434 1.41838 796.564 1.03515 796.799C1.14603 794.421 1.25691 792.042 1.36779 789.664C1.29811 787.72 1.22843 785.776 1.15875 783.832C1.03912 783.842 0.919487 783.852 0.799858 783.862C1.20758 779.947 1.05089 773.797 1.14837 770.763C1.16813 770.159 1.33315 770.028 1.37817 768.152C1.4316 765.958 1.38276 761.87 1.43432 759.256C1.25152 758.24 1.06872 757.224 0.885916 756.208C0.786767 751.533 1.26927 749.89 1.30675 747.146C1.31327 746.651 1.27861 737.635 1.2683 737.149C1.18665 733.172 0.775595 734.299 0.863637 722.796C0.879567 720.747 1.0218 719.091 1.02752 717.239C1.03783 713.969 0.715243 704.113 0.417163 703.339C0.790232 699.372 0.637736 688.758 0.745532 685.632C0.778674 684.688 1.0163 684.475 1.06688 681.575C1.10812 679.224 0.917852 673.169 0.949694 670.187C0.984371 667.022 1.184 665.892 1.19811 664.473C1.21123 663.134 1.05008 661.898 1.05101 660.072C1.05664 654.373 1.31601 649.211 1.32079 644.706C1.32829 638.191 0.851171 632.436 0.639328 626.985C0.670261 625.632 0.772668 624.303 0.773606 622.884C0.788608 605.336 0.876515 585.54 0.978682 567.94C1.02561 559.769 1.67324 539.45 0.592633 544.873C0.403387 542.034 0.839062 521.387 0.845623 517.46C0.852121 513.534 0.658356 510.422 0.655497 507.336C0.647061 498.023 0.786684 491.465 0.617959 480.129C0.573848 477.202 0.344293 474.065 0.346962 472.331C0.350711 470.242 0.572727 467.995 0.586831 465.289C0.618698 458.84 0.545669 446.822 0.584083 440.635C0.591582 439.505 0.786522 439.108 0.84745 437.493C1.08552 431.201 1.06487 424.149 0.442481 425.396C0.795829 417.332 0.473515 409.872 0.453771 402.399C0.413464 386.597 0.558737 357.813 0.297213 344.047C0.132231 335.367 -0.146912 335.589 0.0939644 322.81C0.147386 319.973 0.219441 317.149 0.283173 313.708C0.433148 305.643 0.948835 298.245 0.327423 292.097C0.488588 283.14 0.374295 276.006 0.905732 269.36C0.778269 268.577 0.650807 267.793 0.523345 267.01C0.520192 265.912 0.517038 264.814 0.513885 263.715C0.635447 263.373 0.757009 263.03 0.878571 262.688C0.911305 254.821 0.411668 244.84 0.415311 238.181C0.420935 227.016 0.615043 198.259 0.77908 187.672C0.866189 182.051 0.605832 181.749 1.14102 178.531C1.10379 177.273 1.06656 176.016 1.02932 174.759C0.912136 173.972 0.794948 173.186 0.677761 172.399C0.673073 165.188 0.855099 156.635 0.853236 149.765C0.849486 137.247 0.526957 118.45 0.738793 105.88C0.792213 102.728 1.03388 98.7878 1.03115 95.7012C1.0274 91.2089 0.626357 90.1171 0.618858 84.4163C0.606671 74.5911 1.07257 56.2933 1.03695 47.0066C1.02663 44.2484 0.877406 42.9614 0.861471 41.0569C0.793044 33.0706 0.805195 26.5138 0.574604 18.8559C0.95892 10.6333 1.45498 11.3437 1.95553 8.79543C2.33331 6.86422 3.20883 0.942516 3.5397 0.101897C3.77215 -0.488586 4.07118 1.71609 4.32705 0.888642C4.53139 10.74 4.30644 14.8788 3.9465 22.8782C3.96084 37.6509 3.97519 52.4237 3.98953 67.1965C3.84986 68.5405 3.71019 69.8845 3.57052 71.2285C3.57022 71.2285 3.56991 71.2285 3.56961 71.2285C3.40842 76.9018 3.76811 79.3063 3.84976 82.3659C4.63152 111.658 4.01966 169.31 3.93155 201.558C3.91281 208.507 4.10102 231.111 3.87418 235.879C3.81511 237.114 3.59974 237.457 3.59037 238.771C3.71844 250.505 3.84651 262.239 3.97459 273.973C3.63995 298.102 3.91632 323.048 3.96788 347.361C4.10754 413.142 4.27731 478.266 4.22576 542.97C4.21545 555.475 4.3768 571.344 4.27276 583.586C4.22962 588.695 3.88377 590.824 4.14153 597.536C4.04835 597.607 3.95517 597.677 3.86199 597.748C3.97448 603.605 4.1865 607.348 4.20806 613.915C4.22587 619.445 4.23971 634.076 4.2041 638.963C4.18629 641.498 4.01217 640.554 4.01305 642.917C4.01587 646.962 4.25658 655.606 4.25659 661.189C4.25659 666.246 4.05602 674.771 4.08508 678.659C4.18819 692.662 4.4855 707.913 4.40582 722.835C4.38328 726.957 4.15752 732.259 4.16382 733.549C4.17694 736.071 4.39624 736.822 4.42444 738.516C4.56691 747.119 4.3063 760.53 4.29596 768.963C4.26222 796.442 4.35794 825.552 4.31763 852.913C4.29233 870.199 4.33092 898.925 4.16596 914.884C4.13034 918.326 3.89008 917.408 3.89008 920.298C3.89013 923.502 4.05244 925.238 4.06556 926.735C4.15742 937.099 4.32149 959.979 4.15559 969.765C4.12373 971.629 3.93548 972.981 3.93616 974.097C3.93617 974.661 4.06463 975.938 4.07777 977.711C4.194 993.368 4.11908 1004.78 4.07502 1020.13C3.99161 1049.51 4.23061 1083.56 4.10127 1114.42C4.07315 1121.15 3.70079 1125.76 3.70454 1126.71C3.71205 1128.78 3.9625 1130.11 4.02437 1134.31C4.22771 1148.29 3.96046 1167.11 4.08602 1180.4C4.14787 1186.97 4.4658 1195.99 4.53615 1202.45C4.59239 1207.62 4.46767 1219.81 4.60726 1222.09C4.69159 1223.49 4.96245 1224.13 4.99636 1225.8ZM0.780033 1051.91C1.21309 1052.83 0.853195 1043.17 0.620731 1046.79C0.568388 1047.61 0.667619 1051.67 0.780033 1051.91ZM1.53197 599.4C1.40827 599.488 1.28457 599.577 1.16087 599.665C1.21235 600.934 1.26382 602.203 1.31529 603.471C1.38965 602.758 1.46402 602.045 1.53838 601.332C1.53624 600.688 1.5341 600.044 1.53197 599.4Z" fill="black"/>
</svg>

<svg xmlns="http://www.w3.org/2000/svg" width="5" height="1289" fill="none" viewBox="0 0 5 1289"><path fill="#000" d="M4.996 1225.8c.03 1.53-.132 3.7-.14 5.51-.038 7.59-.15 10.41-.214 17.28-.095 10.18.118 40.41-1.008 40.41-.011 0-.022 0-.034-.01-.214-.1-.448-2.68-.691-3.06s-1.81-.09-1.898-3.74c-.116-5.3.286-18 .268-20.82-.013-1.93-.155-4.31-.18-6.78-.082-7.96.022-12.12-.365-19.29l.612-8.61c-.094-3.74.175-9.41.16-11.69-.012-1.86-.174-2.96-.181-4.9-.01-2.18.165-5.53.138-9.49-.042-6.51-.463-7.66-.516-11.56-.055-4.05.173-10.34.025-15.5l-.139-1.95c-.104.47-.209.93-.314 1.4-.048-2.6.166-3.72.17-6.11.005-2.81-.199-4.25-.198-6.14.001-1.55.164-3.65.154-5.66-.014-2.93-.25-2.29-.293-3.86-.018-.63-.147-12.26-.15-12.92-.009-4.98.314-5.42.342-9.4.077-11.03-.184-22.36-.282-32.56-.044-4.56-.025-9.32.026-13.86.825 7.16 1.467-8.68.176-2.76.184-5.05-.165-8.64-.106-13.43.039-3.1.218-5.25.213-9.67-.01-7.86-.518-16.45.401-18.71-.162-9.22.172-17.2-.64-20.53-.05-2.38.434-8.47.5-11.14.061-2.52.28-21.868.292-25.033s.025-8.707-.046-11.374c-.088-3.349-.93-5.69.055-11.653-.08-6.934-.052-9.404.062-15.853.021-1.168.167-1.3.167-1.982 0-1.405-.108-3.796-.12-6.304-.022-4.124.285-6.478-.185-6.018l-.236-8.158.272-2.862-.296-4.361c.68 1.708.278-8.525-.112-5.202l.422-15.814c.773.736.09-11.574-.33-10.537l.001-1.81c.205-5.28.038-10.13.175-16.566.138-6.436.213-5.832.569-7.789l-.061-4.543c-.974-7.947.712-6.542-.035-20.151.612-4.347.29-15.065.105-22.171-.022-.827-.14-.841-.177-1.942-.088-2.693.064-9.563-.319-9.328l.333-7.135-.21-5.832-.358.03c.408-3.915.25-10.065.348-13.099.02-.604.185-.735.23-2.611.054-2.194.005-6.282.056-8.896l-.548-3.048c-.1-4.675.383-6.318.42-9.062.007-.495-.027-9.511-.038-9.997-.081-3.977-.492-2.85-.404-14.353.016-2.049.158-3.705.164-5.557.01-3.27-.313-13.126-.61-13.9.372-3.967.22-14.581.328-17.707.033-.944.27-1.157.32-4.057.042-2.351-.148-8.406-.116-11.388.034-3.165.234-4.295.248-5.714.013-1.339-.148-2.575-.147-4.401.006-5.699.265-10.861.27-15.366.007-6.515-.47-12.27-.682-17.721.031-1.353.134-2.682.135-4.101.015-17.548.103-37.344.205-54.944.047-8.171.694-28.49-.386-23.067-.19-2.839.246-23.486.253-27.413.006-3.926-.188-7.038-.19-10.124-.009-9.313.13-15.871-.038-27.207-.044-2.927-.274-6.064-.271-7.798.004-2.089.226-4.336.24-7.042.032-6.449-.041-18.467-.003-24.654.008-1.13.203-1.527.263-3.142.239-6.292.218-13.344-.405-12.097.354-8.064.032-15.524.012-22.997-.04-15.802.105-44.586-.157-58.352-.165-8.68-.444-8.458-.203-21.237.053-2.837.125-5.661.19-9.102.15-8.065.665-15.463.043-21.611.162-8.957.047-16.091.579-22.737l-.383-2.35-.01-3.295.366-1.027c.032-7.867-.467-17.848-.464-24.507.006-11.165.2-39.922.364-50.509.087-5.621-.173-5.923.362-9.141l-.112-3.772-.351-2.36c-.005-7.211.177-15.764.175-22.634C.85 137.247.527 118.45.74 105.88c.053-3.152.295-7.092.292-10.179C1.027 91.21.626 90.117.62 84.416c-.012-9.825.454-28.123.418-37.41-.01-2.758-.16-4.045-.176-5.95-.068-7.985-.056-14.542-.286-22.2.384-8.223.88-7.512 1.38-10.06C2.334 6.863 3.21.942 3.54.101c.232-.59.531 1.614.787.787.204 9.851-.02 13.99-.38 21.99l.043 44.317-.42 4.032c-.162 5.674.198 8.078.28 11.138.782 29.292.17 86.944.082 119.192-.02 6.949.169 29.553-.058 34.321-.059 1.235-.274 1.578-.284 2.892l.385 35.202c-.335 24.129-.059 49.075-.007 73.388.14 65.781.31 130.905.258 195.609-.01 12.505.15 28.374.047 40.616-.043 5.109-.39 7.238-.131 13.95l-.28.212c.112 5.857.324 9.6.346 16.167.018 5.53.032 20.161-.004 25.048-.018 2.535-.192 1.591-.19 3.954.002 4.045.243 12.689.243 18.272 0 5.057-.201 13.582-.172 17.47.103 14.003.4 29.254.32 44.176-.022 4.122-.247 9.424-.241 10.714.013 2.522.232 3.273.26 4.967.143 8.603-.118 22.014-.128 30.447-.034 27.479.062 56.589.022 83.95-.026 17.286.013 46.012-.152 61.971-.036 3.442-.276 2.524-.276 5.414 0 3.204.162 4.94.176 6.437.091 10.364.255 33.244.09 43.03-.032 1.864-.22 3.216-.22 4.332 0 .564.129 1.841.142 3.614.116 15.657.041 27.069-.003 42.419-.083 29.38.156 63.43.026 94.29-.028 6.73-.4 11.34-.396 12.29.007 2.07.257 3.4.32 7.6.203 13.98-.065 32.8.061 46.09.062 6.57.38 15.59.45 22.05.056 5.17-.068 17.36.071 19.64.085 1.4.355 2.04.39 3.71M.78 1051.91c.433.92.073-8.74-.16-5.12-.052.82.048 4.88.16 5.12m.752-452.51-.371.265.154 3.806.223-2.139z" opacity=".23"/></svg>
